flash-vue-admin/src/icons/svg/date.svg

<svg class="icon" viewBox="0 0 1024 1024" xmlns="http://www.w3.org/2000/svg" width="200" height="200"><defs><style/></defs><path d="M947.2 1024H76.8C38.4 1024 0 992 0 953.6V172.8c0-38.4 38.4-70.4 76.8-70.4h38.4v102.4c0 38.4 38.4 70.4 76.8 70.4h76.8c44.8 0 76.8-32 76.8-70.4V102.4h313.6v102.4c0 38.4 38.4 70.4 76.8 70.4h76.8c44.8 0 76.8-32 76.8-70.4V102.4H928c44.8 0 76.8 32 76.8 70.4V960c19.2 32-19.2 64-57.6 64zM352 339.2H115.2V512H352V339.2zm0 204.8H115.2v172.8H352V544zm0 204.8H115.2v172.8H352V748.8zm275.2-409.6H396.8V512h236.8V339.2zm0 204.8H396.8v172.8h236.8V544zm0 204.8H396.8v172.8h236.8V748.8zm281.6-409.6H672V512h236.8V339.2zm0 204.8H672v172.8h236.8V544zm0 204.8H672v172.8h236.8V748.8zm-121.6-512c-44.8 0-76.8-32-76.8-70.4v-96C710.4 32 748.8 0 787.2 0S864 32 864 70.4v102.4c0 38.4-32 64-76.8 64zm-550.4 0c-44.8 0-76.8-25.6-76.8-64V70.4C160 32 192 0 236.8 0s76.8 32 76.8 70.4v102.4c0 38.4-32 64-76.8 64z"/></svg>

<?xml version="1.0" standalone="no"?><!DOCTYPE svg PUBLIC "-//W3C//DTD SVG 1.1//EN" "http://www.w3.org/Graphics/SVG/1.1/DTD/svg11.dtd"><svg t="1567417179372" class="icon" viewBox="0 0 1024 1024" version="1.1" xmlns="http://www.w3.org/2000/svg" p-id="1155" xmlns:xlink="http://www.w3.org/1999/xlink" width="200" height="200"><defs><style type="text/css"></style></defs><path d="M947.2 1024 76.8 1024C38.4 1024 0 992 0 953.6L0 172.8c0-38.4 38.4-70.4 76.8-70.4l38.4 0 0 102.4c0 38.4 38.4 70.4 76.8 70.4l76.8 0c44.8 0 76.8-32 76.8-70.4L345.6 102.4l313.6 0 0 102.4c0 38.4 38.4 70.4 76.8 70.4l76.8 0c44.8 0 76.8-32 76.8-70.4L889.6 102.4l38.4 0c44.8 0 76.8 32 76.8 70.4l0 787.2C1024 992 985.6 1024 947.2 1024zM352 339.2 115.2 339.2 115.2 512l236.8 0L352 339.2zM352 544 115.2 544l0 172.8 236.8 0L352 544zM352 748.8 115.2 748.8l0 172.8 236.8 0L352 748.8zM627.2 339.2 396.8 339.2 396.8 512l236.8 0L633.6 339.2zM627.2 544 396.8 544l0 172.8 236.8 0L633.6 544zM627.2 748.8 396.8 748.8l0 172.8 236.8 0L633.6 748.8zM908.8 339.2l-236.8 0L672 512l236.8 0L908.8 339.2zM908.8 544l-236.8 0 0 172.8 236.8 0L908.8 544zM908.8 748.8l-236.8 0 0 172.8 236.8 0L908.8 748.8zM787.2 236.8c-44.8 0-76.8-32-76.8-70.4L710.4 70.4c0-38.4 38.4-70.4 76.8-70.4s76.8 32 76.8 70.4l0 102.4C864 211.2 832 236.8 787.2 236.8zM236.8 236.8C192 236.8 160 211.2 160 172.8L160 70.4C160 32 192 0 236.8 0s76.8 32 76.8 70.4l0 102.4C313.6 211.2 281.6 236.8 236.8 236.8z" p-id="1156"></path></svg>
